symbols/web/alarm/materialsymbolsrounded/alarm_wght200grad200_20px.svg

<svg xmlns="http://www.w3.org/2000/svg" height="20" width="20"><path d="M9.979 18.104q-1.5 0-2.823-.562-1.323-.563-2.344-1.584-1.02-1.02-1.583-2.343-.562-1.323-.562-2.823 0-1.521.562-2.844.563-1.323 1.583-2.344 1.021-1.021 2.344-1.573t2.823-.552q1.521 0 2.844.552t2.333 1.573q1.011 1.021 1.573 2.344.563 1.323.563 2.823 0 1.521-.563 2.844-.562 1.323-1.573 2.343-1.01 1.021-2.333 1.584-1.323.562-2.844.562Zm0-7.292ZM9.25 7.333v3.417q0 .188.052.333.052.146.198.292l2.375 2.354q.208.229.49.24.281.01.531-.24.229-.229.229-.489 0-.261-.229-.511l-2.188-2.208V7.312q0-.27-.208-.489-.208-.219-.521-.219-.291 0-.51.219-.219.219-.219.51ZM2.812 6.021q-.229.208-.51.219-.281.01-.51-.219-.23-.229-.23-.49 0-.26.23-.531l2.375-2.375q.208-.208.5-.219.291-.01.541.219.23.25.219.51-.01.261-.26.532Zm14.334 0-2.354-2.354q-.23-.229-.24-.511-.01-.281.24-.531.229-.229.51-.24.281-.01.531.24L18.208 5q.209.188.219.479.011.292-.219.542-.25.229-.531.25-.281.021-.531-.25ZM9.979 16.646q2.396 0 4.125-1.729t1.729-4.125q0-2.417-1.718-4.136-1.719-1.718-4.136-1.718T5.844 6.646q-1.719 1.708-1.719 4.125 0 2.437 1.708 4.156 1.709 1.719 4.146 1.719Z"/></svg>

<svg xmlns="http://www.w3.org/2000/svg" height="20" width="20"><path d="M9.979 18.104Q8.479 18.104 7.156 17.542Q5.833 16.979 4.812 15.958Q3.792 14.938 3.229 13.615Q2.667 12.292 2.667 10.792Q2.667 9.271 3.229 7.948Q3.792 6.625 4.812 5.604Q5.833 4.583 7.156 4.031Q8.479 3.479 9.979 3.479Q11.5 3.479 12.823 4.031Q14.146 4.583 15.156 5.604Q16.167 6.625 16.729 7.948Q17.292 9.271 17.292 10.771Q17.292 12.292 16.729 13.615Q16.167 14.938 15.156 15.958Q14.146 16.979 12.823 17.542Q11.5 18.104 9.979 18.104ZM9.979 10.812Q9.979 10.812 9.979 10.812Q9.979 10.812 9.979 10.812Q9.979 10.812 9.979 10.812Q9.979 10.812 9.979 10.812Q9.979 10.812 9.979 10.812Q9.979 10.812 9.979 10.812Q9.979 10.812 9.979 10.812Q9.979 10.812 9.979 10.812ZM9.25 7.333V10.75Q9.25 10.938 9.302 11.083Q9.354 11.229 9.5 11.375L11.875 13.729Q12.083 13.958 12.365 13.969Q12.646 13.979 12.896 13.729Q13.125 13.5 13.125 13.24Q13.125 12.979 12.896 12.729L10.708 10.521V7.312Q10.708 7.042 10.5 6.823Q10.292 6.604 9.979 6.604Q9.688 6.604 9.469 6.823Q9.25 7.042 9.25 7.333ZM2.812 6.021Q2.583 6.229 2.302 6.24Q2.021 6.25 1.792 6.021Q1.562 5.792 1.562 5.531Q1.562 5.271 1.792 5L4.167 2.625Q4.375 2.417 4.667 2.406Q4.958 2.396 5.208 2.625Q5.438 2.875 5.427 3.135Q5.417 3.396 5.167 3.667ZM17.146 6.021 14.792 3.667Q14.562 3.438 14.552 3.156Q14.542 2.875 14.792 2.625Q15.021 2.396 15.302 2.385Q15.583 2.375 15.833 2.625L18.208 5Q18.417 5.188 18.427 5.479Q18.438 5.771 18.208 6.021Q17.958 6.25 17.677 6.271Q17.396 6.292 17.146 6.021ZM9.979 16.646Q12.375 16.646 14.104 14.917Q15.833 13.188 15.833 10.792Q15.833 8.375 14.115 6.656Q12.396 4.938 9.979 4.938Q7.562 4.938 5.844 6.646Q4.125 8.354 4.125 10.771Q4.125 13.208 5.833 14.927Q7.542 16.646 9.979 16.646Z"/></svg>
